symbols/web/house/materialsymbolsoutlined/house_wght100grad200_20px.svg

<svg xmlns="http://www.w3.org/2000/svg" height="20" width="20"><path d="M4.75 16.333V9.688H3l7-6.48 2.542 2.438V3.833h2.125v3.729L17 9.688h-1.75v6.645h-4.333v-4.645H9.083v4.645Zm1.208-1.208h1.917v-4.646h4.25v4.646h1.917v-6.5L10 4.875l-4.042 3.75Zm1.917-4.646h4.25-4.25Zm.542-2h3.166q0-.604-.468-1.021-.469-.416-1.115-.416t-1.115.416q-.468.417-.468 1.021Z"/></svg>

<svg xmlns="http://www.w3.org/2000/svg" height="20" width="20"><path d="M4.75 16.333V9.688H3L10 3.208L12.542 5.646V3.833H14.667V7.562L17 9.688H15.25V16.333H10.917V11.688H9.083V16.333ZM5.958 15.125H7.875V10.479H12.125V15.125H14.042V8.625L10 4.875L5.958 8.625ZM7.875 10.479H10H12.125H7.875ZM8.417 8.479H11.583Q11.583 7.875 11.115 7.458Q10.646 7.042 10 7.042Q9.354 7.042 8.885 7.458Q8.417 7.875 8.417 8.479Z"/></svg>
